X:1
T:Hononoke Hime
T:Mononoke Hime
T:from "Princess Mononoke"
T:Joe Hisaishi
C:Joe Hisaishi
%%score 1 { 2 | 3 }
L:1/8
Q:1/4=72
M:4/4
K:Eb
V:1 treble nm="Piano"
V:2 treble nm="Piano"
V:3 bass 
V:1
 z8 | z8 | z8 | z8 | z8 | z8 | z8 | z8 | z8 | z8 | z8 | z8 | z8 | z8 | z8 | z8 | z8 | z8 | z8 | %19
 z8 | z8 | z8 | z8 | z4 z4 | z8 | z8 | z8 | z8 | z8 | z8 | z8 | z8 | z8 | z8 | z8 |[Q:1/4=80] z8 | %36
 z8 | z8 | z8 |[Q:1/4=77] z8 | z8 | z8 | z8[Q:1/4=72]"^\n" |[Q:1/4=76] z8 | z8 | z8 | z8 | z8 | %48
 z8 | z8 | z8 | z8 | z8 | z8 | z4[Q:1/4=75] |[Q:1/4=73] z8[Q:1/4=72] | z8 | z8 | z8 | z8 | z8 | %61
 z8 | z8 | z8 | z8 | z8 | z8 ||[K:F] z8 | z8 | z8 | z4 z z z2 | z8 | z8 | z8 |[Q:1/4=70] z8 | %75
 z2 z z z4 | z4 z2 z z | z8 | z8 | z8 |[Q:1/4=68] z8[Q:1/4=66] | z8[Q:1/4=64][Q:1/4=62][Q:1/4=58] | %82
 z8 |] %83
V:2
!mf!!ped! (g2!mp! f2) c2!p! d2- | d8!ped-up! |!mf!!ped! f2!mp! e2 B2!p! c2- | c8!ped!!ped-up! | %4
 [B,_DAB]8!ped-up!!ped! | [B,CEFB]8!ped-up! |!mp!!ped! [CDG]8 | CDGd g4!ped-up! | %8
!mp!!ped! CGGF G3 G!ped-up! |!ped! BF F2- F4!ped-up! |!ped! !arpeggio![CGc]GGF G3!ped-up! G | %11
!ped! [DFB]2- [DFB]4 GB!ped-up! |!ped! c3 c [FAc]3 c |!ped! [FB]2 F2!ped-up! [EG]4 | %14
!ped! !^![A,CF]FFG!<(! F2 C2!ped-up! |!ped! !arpeggio![CDG]2- [CDG]2 [=B,EG]2 [B,F]2!ped-up!!<)! | %16
!mp!!ped! [Cc][Gg][Gg][Ff] [Gg]3 [Bb]!ped-up! |!ped! [Ff]8!ped-up! | %18
!ped! [Cc][Gg][Gg][Ff] [Gg]3 [Gg]!ped-up! |!ped! [Bb]6 [Gg][Bb]!ped-up! | %20
!ped! [cac'][cc'][A,CEG][cc'] [cc']3 [cc']!ped-up! |!ped! [Bb]2 [Ff]2 [Gg]4!ped-up! | %22
!ped! [Ff][Ff][Ff][Gg]!ped-up!!ped!!>(! [Ff] [Cc]2 [Ee]!ped-up! |!ped! [Ee]8!ped-up!!>)! | %24
!mp! c!ped!ccd c3 c!ped-up! | e2!ped! d2 G4!ped-up! |!<(! F2!ped! B2 G2 FG!ped-up! | %27
!ped! !arpeggio![FGBd][FGBd][FGBd][FGBe]!mf! [FGBd]3!<)!!>(! B/G/!ped-up! | %28
!mp!!ped! e2 d2!ped-up!!ped! G3!>)! G!ped-up! | %29
!ped! !arpeggio![CEc]2 BA!<(! !arpeggio![B,EFB]4!ped-up! | %30
!ped! z2!ped-up!!<)!!mf! [Gg][Bb]!ped-up!!ped! [ceac']2 [ee'][dbd']- | %31
 [dbd'][Gg]-[Gg][Bb]!ped! [cefac']4-!ped-up! | %32
 [cefac']2!ped-up!!ped!!<(! [Gg][Bb]!ped-up!!ped! [cc']2!<)! [ee']2 | %33
!ped! [dd'][Gg]-[Gg][Bb] !arpeggio![cgc']4-!ped-up!!ped!!ped-up! | [cgc']8-!ped-up!!ped! | %35
 [cgc']4!ped!!8va(! !^!c'!ped-up!d''c''g' | %36
 g''d'' c''!^![bg'-]/!^![ag']/!ped-up!!ped! !^!bd''c''g' | g''d''c''g'!8va)!!ped-up!!ped! !^!g4- | %38
 g!^!c!^!f!^!b!ped-up!!ped! g4- | gfed!mp!!ped-up!!ped! cggf | g2- gg!ped-up!!ped! bf- f2- | %41
 f4!ped-up!!ped! cggf | g3 b!ped-up!!ped!!<(! !arpeggio![Bdfb]4- | %43
 [Bdfb]2 [Gg][Bb]!ped-up!!ped! [cc']2!<)! [cfac'][cfac'] | %44
 [cfac']2- [cfac']2!ped!!>(! !arpeggio![Bdfb]2 [FBdf]2!ped-up! | %45
 !arpeggio![GBg]2- [GBg]2!>)!!mf!!ped-up!!ped! !arpeggio![FAcf][FAcf][FAcf][Gg] | %46
 [Ff]2 [Cc]2!ped-up!!ped!!>(! !arpeggio![Gcg]2 [CG]2 | [G,=B,EG]2 [B,F]2!>)!!ped-up!!ped! cggf | %48
 g2- gb!ped-up!!ped! f4- | f4!ped-up!!ped! cggf | g2- gg!ped-up!!ped! !arpeggio![Bdfb]4- | %51
 [Bdfb]2 [Gg][Bb]!<(!!ped-up!!ped! [cc']2 [cfac'][cfac'] | %52
 [cfac']2-!<)!!mf! [cfac']2!ped! [Bdfb]2 [FBdf]2!ped-up! | %53
 [GBeg]2- [GBeg]2!ped-up!!ped! !arpeggio![FAcf][FAcf][FAcf][Gg] | %54
!ped! [FBdf][Cc]-[Cc][Ee] | x4!ped-up!!<(!!ped! [Ee]2 E2!ped-up! G2 B2!<)! | %56
!mf! [cegc']!ped![cc'][cc'][dd'] [cc']3 [cc']!ped-up! | [ee']2!ped! [dd']2 [Gg]4!ped-up! | %58
 [Ff]2!ped! [Bb]2 [Gg]2 [Ff][Gg]!ped-up! | %59
!ped!!<(! !arpeggio![dgbd'][dgbd'][dgbd'][ee'] [dd']3 [Bb]!ped-up!!<)! | %60
!f!!ped! [egc'e']2 [dgd']2!ped-up!!ped! [GBdg]3 [Gg]!ped-up! | %61
!>(!!ped! !arpeggio![cec']2 [Bb][Aa] [Bb]4!ped-up!!>)! | %62
!mp!!8va(!!ped! !arpeggio![e'f'b']2!ped-up!!8va)!!mf! [Gg][Bb]!ped-up!!ped! [ceac']2 [ee']2 | %63
!ped! [dbd'][Gg]-[Gg][Bb]!ped-up!!ped! [cefac']4-!ped-up! | %64
 [cefac']2!f!!ped-up!!ped! [Gg][Bb]!ped-up!!ped! [cc']2 [ee']2 | %65
!ped! [dd'][Gg]-[Gg][Bb]!ped-up!!ped! !arpeggio![cgc']4!ped-up! | %66
 C!<(!G/F/ C/G,/[G,G]/[B,B]/!<)!!ped-up!!ped! [CGc][^CA^c]3/2_D,/4=D,/4_F,/4=F,/4G,/4__B,/4 || %67
[K:F]!f!!ped! D/4E/4F/4G/4A/4=B/4^c/4d/4 e/4f/4g/4a/4=b/4^c'/4d'/4e'/4!ped-up!!ped! [dfd'][dd'][dd'][ee']!ped-up! | %68
 [dd']2- [dd'][dd']!ped-up!!ped! [ff']2 [ee']2 | [Aa]2- [Aa]2!ped-up!!ped! [Gg]2 [cc']2 | %70
!ped! [Aa]2 [Gg][Aa] !arpeggio![ea^c'e']!ped-up!!ped![ee'][ee'][ff']!ped-up! | %71
!ped! [ee']A/4=B/4_d/4=d/4 e/4f/4g/4a/4=b/4^c'/4d'/4e'/4 [fad'f']2!ped-up!!ped! [ee']2!ped-up! | %72
!ped! [A-cea-]2 [Aa][Aa]!ped-up!!ped!!>(! [dfbd']3/2[cgc']3/2[Bab]!ped-up! | %73
!ped! [cc']8!ped-up!!>)! |!mp!!ped! Ac d2 f2!ped-up!!ped! eA-!ped-up! | Ac!ped-up!!ped![da]d e a3 | %76
 A,C!ped-up!!ped! D2 F2!ped-up!!ped! EA,- | A,C!ped-up!!ped! [DG]2 F2 E2 | %78
 F2 E2 D2!ped-up!!ped! Ac | d2 f2 e A2 c |!ped! !arpeggio![dgad']2 G2 _F2 G2!ped-up! | %81
!ped! [_GAd]4 ^F/A3/4d3/4 e3/4_g3/4a/-!ped-up! | a!arpeggio![d'_g'a'd''] z6 |] %83
V:3
 z8 | z8 | z8 | z7!f! [_F,,=B,,_D,_F,] | [_F,,_D,_F,]4 z3 [E,,=F,,E,] | [_G,,E,_G,]4 z4 | %6
 [G,,G,]6 D,G, | z8 | [C,E,G,]G,DE- E3 E, | [D,G,]B,,F,B, D3 G, | [A,,E,A,]E,,A,,C, [A,C]3 A, | %11
 [G,,G,]D,G,B,- B,4 | [F,A,C]C,F,A, C4 | [B,,D,F,]2 B,2 [E,,E,]B,, G,2 | %14
 [_D,,A,,_D,]A,,F,A,, CA,[F,C]C, | [D,G,]=A,CA, [G,,G,]4 | [B,,C,E,G,B,]2 [B,DE]2 [B,DE]2 [B,DE]2 | %17
 !^![B,,D,F,B,]2 [F,B,D]2 [F,B,D]2 [F,B,D]2 | !^![A,,C,E,A,]2 [CEGA]2 [CEGA]2 [CEGA]2 | %19
 !^![B,EFB]2 [B,EFB]2 [DFB]2 [DFB]2 | [F,,C,F,]!^!C,!^!G,!^!A, [A,CEG]2 [A,CEG]2 | %21
 [B,,F,]F, [B,D]2 !^!E,,B,, [E,G,]2 | [A,,C,F,A,]C, [F,A,C]2 [B,,D,F,B,]4 | %23
 [G,B,-E]B,,E,F, [E,B,]2 [D,F,]2 | !^!C,G,CG, C,G, C2 | !^!G,,D,B,D, !^!G,,D,B,D, | %26
 !^!F,,C,A,C, !^!E,,B,,G,B,, | G,,D,=A,B,- B,G,D,B,, | !^!C,G,EG, !^!B,,G, D2 | %29
 A,,E,A,E, G,,F,B,[K:treble]E | !arpeggio![Befb]2- [Befb]2 [CEA]4 | %31
 [CDFB]2- [CDFB]2 [EAc]!p!!>(!G/F/ G/F/G/F/ | G/F/G/!pp!F/!>)! ED[K:bass] !^!F,,C, [F,A,]2 | %33
 !^!G,,D, [G,B,]2 C,G, F2 | D2 F2 [C=E]4- | [CE]4!p! [A,C_E]2 [A,CE]2 | %36
 [A,CE]2 [A,CE]2 [G,B,D]2 [D,G,B,D]2 | [B,,G,B,]2 [G,,B,,D,G,]C,[K:bass] [F,,A,,C,]C,[G,A,]F, | %38
 [F,,A,,C,]C,A,,F,, [G,,B,,D,]D,G,G,,- | G,,D,G,D C,G,CG, | DG,CG, B,,G,CG, | DG,CG, A,,E,CE, | %42
 B,E,A,E, G,,D,F,G, | B,DB,G, F,,C,A,C, | F,,C,A,C, D,,D,F,B, | E,,B,,G,B,, _D,,A,,F,A,, | %46
 _D,,A,,F,A,, =D,,=A,,C,A,, | [G,,G,]2 [_C,-F,][C,E,] !^!=C,G,CG, | DG,CG, !^!B,,G,CG, | %49
 DG,CG, !^!A,,E,CE, | B,E,A,E, !^!G,,D,F,G, | B,D[G,B,][D,G,] !^!F,,C,A,C, | %52
 F,,C,A,C, !^!B,,F,B,F, | [E,,E,]B,,G,B,, [F,,F,]C,F,C, | !^![B,,B,]F, B,2 | %55
 [E,G,B,]B,,E,G, B,EGB | [EGc]G,CE G4 | [B,EFB]B,,E,F, B,2 [D,F,B,]2 | %58
 [F,A,CE]2 [F,A,C]2 [D,F,A,B,]4 | GDB,G,- G,D,B,,G,, | !^!C,,G,,C,E, !^!B,,F, D2 | %61
 A,,E,CE, [B,EFB]4 | z4 F,,C, F,2 | G,,D, G,2 A,,E,A,E | %64
 [EGA]2 [G,,E,G,][B,,D,B,] [F,,C,F,]C,[G,A,]F, | [G,,B,,]D, G,2 [C,,C,]C,,G,,C,- | %66
 C,4 !^![G,,C,] !^![A,,_D,]2 z || %67
[K:F] [A,,A,][A,,A,][A,,,_D,,A,,][A,,,A,,] [=D,,D,]/A,,/D,/F,/ A,/F,/D,/A,,/ | %68
 F,/D,/A,,/F,,/ D,/A,,/F,,/D,,/ [C,,C,]/E,,/G,,/E,,/ C,/G,,/E,,/G,,/ | %69
 G,/E,/C,/G,,/ C,/G,,/C,, [B,,,B,,]/F,,/B,,/F,,/ D,/F,,/D,,/F,,/ | %70
 [C,,G,,C,]/E,,/G,,/E,,/ [G,,C,]/G,,/B,, [A,,,E,,A,,]/E,,/A,,/E,,/ A,,/E,,/A,,,/E,,/ | %71
 [A,,^C,]2 [^C,,G,,C,][A,,,A,,] [D,,D,]A,,F,A,, | [C,,C,]G,,E,C, [D,,B,,D,]F,,D,B,, | %73
 [F,,A,,C,F,]8 | z2 G,,[G,B,F] !arpeggio![G,B,D]2 A,,[E,A,C] | !arpeggio![A,CE]2 B,,F, [B,D]D A2 | %76
 F,E, [G,,B,,D,F,]2- [G,,B,,D,F,]2 [C,E,G,]2- | [C,E,G,]2 D,6- | D,2 (3D,,__B,,E, F,4 | %79
 B,,[A,D] [DA]2 C,[A,D] [DA]2 | D,,A,,D,G, A,G,D,A,, | D,,A,, D,/^F,/A,/D/ z4 | z8 |] %83

